X:17
T:Aird Ranters, The
R:strathspey
C:Fred Morrison, Scotland
Z:id:hn-strathspey-17
M:C
L:1/8
K:Ador
a2ae g<eed | e<aae g<ed2 | e<aae g<eed |1 c<AAG c<AA2 :|2 c<AAG c<AAB ||
|: c2Bd c<AAG | c<AAG c<AAB | c2Bd c<AAG |1 c<AAG A2AB :|2 c<AAG A2A2 ||

